public/assets/imgs/page/homepage5/evara.svg

<svg width="268" height="69" viewBox="0 0 268 69" fill="none" xmlns="http://www.w3.org/2000/svg">
<g clip-path="url(#clip0_2_483)">
<path d="M19.2537 11.579C17.3495 19.9011 10.7905 26.3895 2.53895 28.2937C1.05789 28.6464 0 29.9158 0 31.3969V37.6032C0 39.5779 1.76316 41.059 3.73789 40.7064C8.74526 39.7895 13.3295 37.8148 17.3495 35.0642C20.7347 32.7369 23.6263 29.7748 26.0242 26.3895C29.2684 21.7348 31.3842 16.2337 32.0189 10.3095C32.0895 9.60425 31.5958 9.04004 30.8905 9.04004H22.3568C20.8758 9.04004 19.6063 10.0979 19.2537 11.579Z" fill="#C3C9CB"/>
<path d="M26.0242 42.6107C23.6968 39.2254 20.7347 36.3338 17.3495 33.9359C13.3295 31.1149 8.74526 29.1401 3.73789 28.2938C1.76316 27.9412 0 29.4222 0 31.397V37.6033C0 39.0843 1.05789 40.3538 2.53895 40.7065C10.8611 42.6107 17.42 49.1696 19.2537 57.4212C19.6063 58.9022 20.8758 59.9601 22.3568 59.9601H30.8905C31.5253 59.9601 32.0895 59.3959 32.0189 58.6907C31.3842 52.7665 29.2684 47.2654 26.0242 42.6107Z" fill="#DDE1E2"/>
<path d="M35.3337 58.6907C35.2632 59.3254 35.7568 59.9601 36.4621 59.9601H44.9958C46.4768 59.9601 47.7463 58.9022 48.0989 57.4212C50.0032 49.0991 56.5621 42.6107 64.8137 40.7065C66.2947 40.3538 67.3526 39.0843 67.3526 37.6033V31.397C67.3526 29.4222 65.5895 27.9412 63.6147 28.2938C58.6074 29.2107 54.0232 31.1854 50.0032 33.9359C46.6179 36.2633 43.7263 39.2254 41.3284 42.6107C38.0842 47.2654 35.9684 52.7665 35.3337 58.6907Z" fill="#C3C9CB"/>
<path d="M44.9958 9.04004H36.4621C35.7568 9.04004 35.2632 9.60425 35.3337 10.3095C35.9684 16.2337 38.0842 21.7348 41.3284 26.3895C43.6558 29.7748 46.6179 32.6664 50.0032 35.0642C54.0232 37.8853 58.6074 39.86 63.6147 40.7064C65.5895 41.059 67.3526 39.5779 67.3526 37.6032V31.3969C67.3526 29.9158 66.2947 28.6464 64.8137 28.2937C56.4916 26.3895 50.0032 19.8306 48.0989 11.579C47.7463 10.0979 46.4768 9.04004 44.9958 9.04004Z" fill="#DDE1E2"/>
</g>
<path d="M101.836 44.2551C102.464 44.2551 102.927 44.5031 103.225 44.999C103.556 45.4619 103.721 45.9744 103.721 46.5365C103.721 47.2308 103.605 47.7267 103.374 48.0243C103.175 48.2888 102.779 48.5699 102.183 48.8674C100.795 49.5287 99.0755 50.0577 97.0256 50.4545C94.9757 50.8512 92.777 51.0496 90.4295 51.0496C87.4868 51.0496 85.3212 50.5536 83.9326 49.5618C82.577 48.5699 81.7338 47.3796 81.4032 45.9909C81.1056 44.5692 80.9569 42.7177 80.9569 40.4363C80.9569 37.9896 81.0561 35.5925 81.2544 33.2451C81.4528 30.8645 81.8 27.8392 82.2959 24.1692C82.5274 22.5822 83.1556 21.4415 84.1805 20.7472C85.2055 20.0198 86.3296 19.6561 87.553 19.6561C88.5779 19.6561 90.2476 19.623 92.562 19.5569L96.8768 19.5073C98.6622 19.5073 99.9517 19.5569 100.745 19.6561C101.737 19.8545 102.464 20.0859 102.927 20.3504C103.423 20.5819 103.671 20.9951 103.671 21.5903C103.671 22.2515 103.44 22.8963 102.977 23.5245C102.547 24.1527 101.886 24.4668 100.993 24.4668C99.9682 24.4668 98.4969 24.4007 96.5792 24.2684C94.6616 24.1361 93.2233 24.07 92.2645 24.07C91.4379 24.07 90.6278 24.1196 89.8343 24.2188C88.9086 24.2849 88.2473 24.4007 87.8505 24.566C87.4538 24.7313 87.2223 25.0123 87.1562 25.4091C86.6933 28.8146 86.4619 31.3274 86.4619 32.9475C87.2223 33.0467 87.9663 33.0963 88.6937 33.0963C89.6194 33.0963 90.6113 33.0467 91.6693 32.9475C92.7274 32.8483 93.4052 32.7822 93.7027 32.7491C95.4551 32.5838 96.9595 32.5011 98.2159 32.5011C98.9432 32.5011 99.4888 32.6334 99.8525 32.8979C100.249 33.1624 100.448 33.5261 100.448 33.989C100.448 34.7164 100.249 35.2784 99.8525 35.6752C99.4888 36.072 98.8275 36.3695 97.8687 36.5679C96.7115 36.7994 95.2732 36.9812 93.5539 37.1135C91.8677 37.2457 90.2146 37.3118 88.5945 37.3118C88.0324 37.3118 87.2554 37.2788 86.2635 37.2126C86.1643 39.2295 86.1147 41.0976 86.1147 42.8169C86.1147 45.1643 87.6687 46.3381 90.7766 46.3381C92.4298 46.3381 93.8019 46.2224 94.893 45.9909C95.9841 45.7595 97.2405 45.4289 98.6622 44.999C99.9847 44.5031 101.043 44.2551 101.836 44.2551ZM118.867 38.2541C118.966 37.9896 119.313 37.0308 119.908 35.3776C120.536 33.7245 121.115 32.4681 121.644 31.6084C122.504 30.2528 123.264 29.575 123.925 29.575C124.851 29.575 125.562 29.7569 126.058 30.1206C126.554 30.4512 126.802 30.9306 126.802 31.5588C126.802 31.8564 126.67 32.2697 126.405 32.7987C126.174 33.3277 126.041 33.6418 126.008 33.741C124.686 36.6506 123.496 39.775 122.437 43.1144L121.396 46.9828C120.999 48.2392 120.321 49.2642 119.363 50.0577C118.404 50.8182 117.28 51.1984 115.99 51.1984C114.833 51.1984 113.758 50.6694 112.767 49.6113C112.171 48.6856 111.543 47.5118 110.882 46.0901C110.254 44.6684 109.708 43.2797 109.245 41.9242L107.509 36.7167C107.146 35.6917 106.848 34.8156 106.617 34.0882C106.418 33.3608 106.319 32.6995 106.319 32.1044C106.286 31.4101 106.484 30.848 106.914 30.4182C107.344 29.9883 107.939 29.7734 108.7 29.7734C109.559 29.7734 110.171 29.9553 110.535 30.319C110.898 30.6496 111.229 31.1786 111.527 31.906C111.659 32.6665 112.023 34.2204 112.618 36.5679L112.965 37.9566C113.262 39.0807 113.643 40.2214 114.106 41.3786C114.568 42.5358 115.031 43.6434 115.494 44.7015C115.428 44.5361 115.66 45.0817 116.189 46.3381C116.519 45.3793 116.899 44.2055 117.329 42.8169L118.867 38.2541ZM152.61 48.6194C152.61 49.3468 152.213 49.9585 151.42 50.4545C150.659 50.9504 149.949 51.1984 149.287 51.1984C148.031 51.1984 147.022 51.0496 146.262 50.752C145.535 50.4214 144.857 49.8263 144.229 48.9666C143.369 49.7271 142.195 50.3057 140.707 50.7024C139.22 51.0661 137.847 51.248 136.591 51.248C134.541 51.248 132.855 50.7024 131.532 49.6113C130.21 48.4872 129.549 46.8506 129.549 44.7015C129.549 43.7757 129.797 42.9326 130.292 42.1721C130.788 41.3786 131.466 40.6843 132.326 40.0891C133.285 39.4609 134.376 38.9815 135.599 38.6509C136.822 38.2872 138.095 38.1054 139.418 38.1054C140.112 38.1054 140.939 38.2376 141.898 38.5021C142.856 38.7666 143.6 39.0477 144.129 39.3452V38.5517C144.129 36.7663 143.7 35.543 142.84 34.8817C141.98 34.1874 140.592 33.8402 138.674 33.8402C138.112 33.8402 137.55 33.9559 136.988 34.1874C136.459 34.4188 135.847 34.7329 135.153 35.1297C134.227 35.6256 133.351 35.8736 132.524 35.8736C132.227 35.8736 131.946 35.6752 131.681 35.2784C131.417 34.8486 131.284 34.4684 131.284 34.1378C131.284 33.1789 131.731 32.3524 132.623 31.658C133.549 30.9637 134.64 30.4512 135.897 30.1206C137.153 29.7569 138.277 29.575 139.269 29.575C140.261 29.575 141.402 29.7734 142.691 30.1702C143.981 30.5339 145.039 31.0464 145.865 31.7076C146.857 32.5673 147.618 33.5757 148.147 34.7329C148.709 35.8571 148.99 37.0969 148.99 38.4525C148.99 38.8823 148.957 39.5271 148.891 40.3867C148.824 41.3125 148.791 42.106 148.791 42.7673C148.791 43.0648 148.758 43.5112 148.692 44.1063C148.626 44.8337 148.593 45.4123 148.593 45.8421C148.593 46.2389 148.742 46.5861 149.039 46.8836C149.337 47.1481 149.684 47.2804 150.081 47.2804L151.469 47.2308C151.833 47.2308 152.114 47.363 152.313 47.6276C152.511 47.8921 152.61 48.2227 152.61 48.6194ZM136.641 47.33C138.062 47.33 139.253 47.1812 140.211 46.8836C141.17 46.5861 142.327 46.0405 143.683 45.247C143.815 44.6849 143.898 43.941 143.931 43.0152C142.113 42.1556 140.608 41.7258 139.418 41.7258C138.062 41.7258 136.856 41.9737 135.797 42.4697C134.739 42.9656 134.21 43.8418 134.21 45.0982C134.21 45.7264 134.475 46.2554 135.004 46.6853C135.533 47.1151 136.079 47.33 136.641 47.33ZM156.075 33.5922C155.215 32.9971 154.785 32.3689 154.785 31.7076C154.785 31.2447 154.984 30.8149 155.38 30.4182C155.777 30.0214 156.372 29.823 157.166 29.823C158.092 29.823 158.918 30.071 159.646 30.5669C160.406 31.0298 160.935 31.7076 161.233 32.6003C161.993 31.7076 162.853 30.9968 163.812 30.4677C164.803 29.9387 165.812 29.6742 166.837 29.6742C168.06 29.6742 169.168 30.0049 170.16 30.6661C171.152 31.3274 171.648 32.2201 171.648 33.3442C171.648 33.9725 171.367 34.6172 170.804 35.2784C170.275 35.9397 169.73 36.2703 169.168 36.2703C168.87 36.2703 168.606 36.2042 168.374 36.072C168.176 35.9066 167.928 35.6752 167.63 35.3776C167.3 35.047 167.019 34.8156 166.787 34.6833C166.556 34.518 166.291 34.4353 165.994 34.4353C165.465 34.4353 164.969 34.518 164.506 34.6833C164.043 34.8486 163.729 35.047 163.564 35.2784C163.035 36.105 162.638 36.8489 162.373 37.5102C162.142 38.1715 162.026 38.8823 162.026 39.6428C162.026 40.2049 162.01 40.6512 161.977 40.9818L161.927 43.8088C161.927 44.2386 161.944 44.718 161.977 45.247C162.01 45.776 162.043 46.1728 162.076 46.4373C162.175 47.33 162.225 48.1896 162.225 49.0162C162.225 49.5783 162.01 50.0742 161.58 50.5041C161.15 50.9339 160.621 51.1488 159.993 51.1488C159.001 51.1488 158.273 50.9669 157.811 50.6032C157.348 50.2065 157.116 49.4956 157.116 48.4707L157.067 45.2966C157.034 44.6684 157.017 43.7757 157.017 42.6185L157.067 39.3452C157.133 37.7582 157.166 36.4687 157.166 35.4768C157.166 35.1131 157.083 34.7825 156.918 34.4849C156.786 34.1874 156.505 33.8898 156.075 33.5922ZM193.386 51.1984C192.262 51.1984 191.403 51.0331 190.807 50.7024C190.212 50.3387 189.568 49.6775 188.873 48.7186C188.014 49.4791 186.724 50.0908 185.005 50.5536C183.319 51.0165 181.864 51.248 180.64 51.248C178.624 51.248 176.987 50.7024 175.731 49.6113C174.507 48.4872 173.896 46.8506 173.896 44.7015C173.896 43.7757 174.144 42.9326 174.64 42.1721C175.169 41.3786 175.846 40.6843 176.673 40.0891C177.599 39.4609 178.69 38.965 179.946 38.6013C181.236 38.2376 182.409 38.0558 183.467 38.0558C185.253 38.0558 186.84 38.2211 188.228 38.5517V38.5021C188.228 36.7167 187.782 35.4934 186.889 34.8321C186.03 34.1378 184.641 33.7906 182.723 33.7906C181.5 33.7906 180.442 34.3361 179.549 35.4272C179.219 35.8571 178.524 36.072 177.466 36.072C176.937 36.072 176.541 35.8571 176.276 35.4272C176.045 34.9643 175.929 34.5015 175.929 34.0386C175.929 33.0797 176.326 32.2532 177.119 31.5588C177.946 30.8645 178.938 30.352 180.095 30.0214C181.252 29.6577 182.327 29.4759 183.319 29.4759C184.277 29.4759 185.418 29.6742 186.741 30.071C188.063 30.4678 189.138 30.9968 189.964 31.658C190.956 32.5177 191.717 33.5261 192.246 34.6833C192.808 35.8075 193.089 37.0473 193.089 38.4029C193.089 38.8327 193.056 39.4775 192.99 40.3371C192.923 41.329 192.89 42.1391 192.89 42.7673C192.89 43.0648 192.857 43.4451 192.791 43.9079C192.725 44.5031 192.692 44.999 192.692 45.3958C192.692 45.8256 192.824 46.2389 193.089 46.6357C193.353 47.0324 193.717 47.363 194.18 47.6276C194.61 47.859 194.891 48.107 195.023 48.3715C195.155 48.636 195.221 48.9335 195.221 49.2642C195.221 49.5948 195.006 50.0081 194.577 50.5041C194.18 50.9669 193.783 51.1984 193.386 51.1984ZM183.467 41.7258C182.178 41.7258 181.037 41.9737 180.045 42.4697C179.053 42.9656 178.558 43.8418 178.558 45.0982C178.558 45.7264 178.772 46.2554 179.202 46.6853C179.665 47.1151 180.161 47.33 180.69 47.33C182.112 47.33 183.302 47.1812 184.261 46.8836C185.22 46.5861 186.377 46.0405 187.733 45.247C187.898 44.718 187.997 43.9741 188.03 43.0152C188.03 42.6515 188.047 42.3705 188.08 42.1721C186.294 41.8746 184.757 41.7258 183.467 41.7258Z" fill="#C3C9CB"/>
<defs>
<clipPath id="clip0_2_483">
<rect width="67.3526" height="50.92" fill="white" transform="translate(0 9.04004)"/>
</clipPath>
</defs>
</svg>

<svg width="268" height="69" fill="none" xmlns="http://www.w3.org/2000/svg"><g clip-path="url(#a)"><path d="M19.254 11.579c-1.905 8.322-8.464 14.81-16.715 16.715C1.058 28.646 0 29.916 0 31.397v6.206c0 1.975 1.763 3.456 3.738 3.103 5.007-.917 9.591-2.891 13.611-5.642 3.386-2.327 6.277-5.29 8.675-8.674a34.522 34.522 0 0 0 5.995-16.08c.07-.706-.423-1.27-1.128-1.27h-8.534c-1.481 0-2.75 1.058-3.103 2.539Z" fill="#C3C9CB"/><path d="M26.024 42.61c-2.327-3.385-5.29-6.276-8.675-8.674-4.02-2.821-8.604-4.796-13.611-5.642C1.763 27.94 0 29.422 0 31.397v6.206c0 1.481 1.058 2.75 2.539 3.103 8.322 1.905 14.881 8.464 16.715 16.715.352 1.481 1.622 2.54 3.103 2.54h8.534c.634 0 1.199-.565 1.128-1.27a34.522 34.522 0 0 0-5.995-16.08Z" fill="#DDE1E2"/><path d="M35.334 58.69c-.07.635.423 1.27 1.128 1.27h8.534c1.48 0 2.75-1.058 3.103-2.539 1.904-8.322 8.463-14.81 16.715-16.715 1.48-.352 2.539-1.622 2.539-3.103v-6.206c0-1.975-1.763-3.456-3.738-3.103-5.008.917-9.592 2.891-13.612 5.642-3.385 2.327-6.277 5.29-8.675 8.675a34.522 34.522 0 0 0-5.994 16.08Z" fill="#C3C9CB"/><path d="M44.996 9.04h-8.534c-.705 0-1.199.564-1.128 1.27a34.522 34.522 0 0 0 5.994 16.08c2.328 3.385 5.29 6.276 8.675 8.674 4.02 2.821 8.604 4.796 13.612 5.642 1.974.353 3.738-1.128 3.738-3.103v-6.206c0-1.481-1.058-2.75-2.54-3.103-8.321-1.904-14.81-8.463-16.714-16.715-.353-1.481-1.622-2.539-3.103-2.539Z" fill="#DDE1E2"/></g><path d="M101.836 44.255c.628 0 1.091.248 1.389.744.331.463.496.975.496 1.537 0 .695-.116 1.19-.347 1.488-.199.265-.595.546-1.191.843-1.388.662-3.108 1.19-5.157 1.588-2.05.396-4.249.595-6.596.595-2.943 0-5.109-.496-6.497-1.488-1.356-.992-2.2-2.182-2.53-3.571-.297-1.422-.446-3.273-.446-5.555 0-2.446.1-4.843.297-7.19.199-2.382.546-5.407 1.042-9.077.231-1.587.86-2.727 1.884-3.422 1.025-.727 2.15-1.09 3.373-1.09 1.025 0 2.695-.034 5.009-.1l4.315-.05c1.785 0 3.075.05 3.868.15.992.198 1.719.429 2.182.693.496.232.744.645.744 1.24 0 .662-.231 1.306-.694 1.934-.43.629-1.091.943-1.984.943-1.025 0-2.496-.066-4.414-.199-1.917-.132-3.356-.198-4.314-.198-.827 0-1.637.05-2.43.149-.926.066-1.588.182-1.984.347-.397.165-.629.446-.695.843-.463 3.406-.694 5.918-.694 7.538.76.1 1.504.15 2.232.15.925 0 1.917-.05 2.975-.15 1.058-.099 1.736-.165 2.034-.198 1.752-.165 3.257-.248 4.513-.248.727 0 1.273.132 1.637.397.396.264.595.628.595 1.091 0 .727-.199 1.29-.595 1.686-.364.397-1.025.695-1.984.893-1.157.231-2.596.413-4.315.546a63.45 63.45 0 0 1-4.96.198c-.562 0-1.339-.033-2.33-.1-.1 2.017-.15 3.886-.15 5.605 0 2.347 1.555 3.521 4.663 3.521 1.653 0 3.025-.116 4.116-.347a46.742 46.742 0 0 0 3.77-.992c1.322-.496 2.38-.744 3.173-.744Zm17.031-6c.099-.265.446-1.224 1.041-2.877.628-1.654 1.207-2.91 1.736-3.77.86-1.355 1.62-2.033 2.281-2.033.926 0 1.637.182 2.133.546.496.33.744.81.744 1.438 0 .297-.132.71-.397 1.24-.231.529-.364.843-.397.942-1.322 2.91-2.512 6.034-3.571 9.373l-1.041 3.869c-.397 1.256-1.075 2.281-2.033 3.075-.959.76-2.083 1.14-3.373 1.14-1.157 0-2.232-.529-3.223-1.587-.596-.925-1.224-2.1-1.885-3.52a51.628 51.628 0 0 1-1.637-4.167l-1.736-5.207a86.8 86.8 0 0 1-.892-2.629c-.199-.727-.298-1.389-.298-1.984-.033-.694.165-1.256.595-1.686.43-.43 1.025-.645 1.786-.645.859 0 1.471.182 1.835.546.363.33.694.86.992 1.587.132.76.496 2.314 1.091 4.662l.347 1.389a29.523 29.523 0 0 0 1.141 3.422 110.47 110.47 0 0 0 1.388 3.323c-.066-.166.166.38.695 1.636.33-.959.71-2.133 1.14-3.521l1.538-4.563Zm33.743 10.364c0 .728-.397 1.34-1.19 1.836-.761.495-1.471.743-2.133.743-1.256 0-2.265-.148-3.025-.446-.727-.33-1.405-.926-2.033-1.785-.86.76-2.034 1.339-3.522 1.735-1.487.364-2.86.546-4.116.546-2.05 0-3.736-.546-5.059-1.637-1.322-1.124-1.983-2.76-1.983-4.91 0-.925.248-1.768.743-2.529.496-.793 1.174-1.488 2.034-2.083.959-.628 2.05-1.108 3.273-1.438a13.327 13.327 0 0 1 3.819-.546c.694 0 1.521.133 2.48.397.958.265 1.702.546 2.231.843v-.793c0-1.786-.429-3.009-1.289-3.67-.86-.695-2.248-1.042-4.166-1.042-.562 0-1.124.116-1.686.347a19.65 19.65 0 0 0-1.835.943c-.926.496-1.802.744-2.629.744-.297 0-.578-.199-.843-.596-.264-.43-.397-.81-.397-1.14 0-.96.447-1.786 1.339-2.48.926-.694 2.017-1.207 3.274-1.537 1.256-.364 2.38-.546 3.372-.546s2.133.198 3.422.595c1.29.364 2.348.876 3.174 1.538a8.825 8.825 0 0 1 2.282 3.025c.562 1.124.843 2.364.843 3.72 0 .43-.033 1.074-.099 1.934-.067.925-.1 1.719-.1 2.38 0 .298-.033.744-.099 1.34a20.248 20.248 0 0 0-.099 1.735c0 .397.149.744.446 1.042a1.52 1.52 0 0 0 1.042.396l1.388-.05c.364 0 .645.133.844.398.198.264.297.595.297.991Zm-15.969-1.289c1.421 0 2.612-.149 3.57-.446.959-.298 2.116-.843 3.472-1.637.132-.562.215-1.306.248-2.232-1.818-.86-3.323-1.29-4.513-1.29-1.356 0-2.562.249-3.621.745-1.058.496-1.587 1.372-1.587 2.628 0 .628.265 1.157.794 1.587.529.43 1.075.645 1.637.645Zm19.434-13.738c-.86-.595-1.29-1.223-1.29-1.884 0-.463.199-.893.595-1.29.397-.397.992-.595 1.786-.595.926 0 1.752.248 2.48.744.76.463 1.289 1.14 1.587 2.033a9.245 9.245 0 0 1 2.579-2.132c.991-.53 2-.794 3.025-.794a5.86 5.86 0 0 1 3.323.992c.992.661 1.488 1.554 1.488 2.678 0 .628-.281 1.273-.844 1.934-.529.662-1.074.992-1.636.992-.298 0-.562-.066-.794-.198a11.98 11.98 0 0 1-.744-.694c-.33-.331-.611-.562-.843-.695a1.33 1.33 0 0 0-.793-.248c-.529 0-1.025.083-1.488.248-.463.166-.777.364-.942.595-.529.827-.926 1.57-1.191 2.232a6.422 6.422 0 0 0-.347 2.133c0 .562-.016 1.008-.049 1.339l-.05 2.827c0 .43.017.909.05 1.438.033.529.066.926.099 1.19.099.893.149 1.753.149 2.58 0 .561-.215 1.057-.645 1.487-.43.43-.959.645-1.587.645-.992 0-1.72-.182-2.182-.546-.463-.397-.695-1.107-.695-2.132l-.049-3.174c-.033-.629-.05-1.521-.05-2.678l.05-3.274c.066-1.587.099-2.876.099-3.868 0-.364-.083-.694-.248-.992-.132-.298-.413-.595-.843-.893Zm37.311 17.606c-1.124 0-1.983-.165-2.579-.496-.595-.363-1.239-1.024-1.934-1.983-.859.76-2.149 1.372-3.868 1.835-1.686.462-3.141.694-4.365.694-2.016 0-3.653-.546-4.909-1.637-1.224-1.124-1.835-2.76-1.835-4.91 0-.925.248-1.768.744-2.529a8.092 8.092 0 0 1 2.033-2.083c.926-.628 2.017-1.124 3.273-1.488 1.29-.363 2.463-.545 3.521-.545 1.786 0 3.373.165 4.761.496v-.05c0-1.785-.446-3.009-1.339-3.67-.859-.694-2.248-1.041-4.166-1.041-1.223 0-2.281.545-3.174 1.636-.33.43-1.025.645-2.083.645-.529 0-.925-.215-1.19-.645a3.087 3.087 0 0 1-.347-1.388c0-.96.397-1.786 1.19-2.48.827-.695 1.819-1.207 2.976-1.538 1.157-.363 2.232-.545 3.224-.545.958 0 2.099.198 3.422.595 1.322.397 2.397.926 3.223 1.587a8.825 8.825 0 0 1 2.282 3.025c.562 1.124.843 2.364.843 3.72 0 .43-.033 1.075-.099 1.934-.067.992-.1 1.802-.1 2.43 0 .298-.033.678-.099 1.14a13.934 13.934 0 0 0-.099 1.489c0 .43.132.843.397 1.24a3.17 3.17 0 0 0 1.091.992c.43.231.711.479.843.743.132.265.198.563.198.893 0 .33-.215.744-.644 1.24-.397.463-.794.694-1.191.694Zm-9.919-9.472c-1.289 0-2.43.248-3.422.744s-1.487 1.372-1.487 2.628c0 .628.214 1.157.644 1.587.463.43.959.645 1.488.645 1.422 0 2.612-.149 3.571-.446.959-.298 2.116-.843 3.472-1.637.165-.529.264-1.273.297-2.232 0-.364.017-.645.05-.843-1.786-.297-3.323-.446-4.613-.446Z" fill="#C3C9CB"/><defs><clipPath id="a"><path fill="#fff" transform="translate(0 9.04)" d="M0 0h67.353v50.92H0z"/></clipPath></defs></svg>
